_uploads/icon__happy.svg

<svg height="46" viewBox="0 0 46 46" width="46" xmlns="http://www.w3.org/2000/svg"><g fill="none" fill-rule="evenodd" stroke-linecap="round" stroke-width="2" transform="translate(1 1)"><path d="m39 32v-5.49c0-1.387-1.123-2.51-2.51-2.51h-.49l-1.696 6.733c-.334 1.333-1.534 2.267-2.91 2.267h-.394v-1h-3c-.552 0-1 .448-1 1v8c0 .552.448 1 1 1h3v-1l3 1 2.467 1h3.533c1.657 0 3-1.343 3-3v-6.16c0-1.017-.823-1.84-1.84-1.84z" stroke="#e81e75"/><g stroke="#333230" stroke-linejoin="round"><path d="m25.404 43.738c-1.11.172-2.246.262-3.404.262-12.15 0-22-9.85-22-22s9.85-22 22-22 22 9.85 22 22"/><circle cx="13" cy="14" r="3.5"/><circle cx="31" cy="14" r="3.5"/><path d="m26.86 35.665c-1.518.54-3.155.835-4.86.835-4.376 0-8.3-1.94-10.958-5.004m.958-2.496c0 1.657-1.343 3-3 3"/></g></g></svg>

<svg xmlns="http://www.w3.org/2000/svg" width="46" height="46" viewBox="0 0 46 46"><g fill="none" fill-rule="evenodd" stroke-width="2" transform="translate(1 1)" stroke-linecap="round"><path stroke="#E81E75" d="M39 32v-5.49c0-1.387-1.123-2.51-2.51-2.51H36l-1.696 6.733C33.97 32.066 32.77 33 31.394 33H31v-1h-3c-.552 0-1 .448-1 1v8c0 .552.448 1 1 1h3v-1l3 1 2.467 1H40c1.657 0 3-1.343 3-3v-6.16c0-1.017-.823-1.84-1.84-1.84H39z"/><path stroke="#333230" d="M25.404 43.738C24.294 43.91 23.158 44 22 44 9.85 44 0 34.15 0 22S9.85 0 22 0s22 9.85 22 22" stroke-linejoin="round"/><circle cx="13" cy="14" r="3.5" stroke="#333230" stroke-linejoin="round"/><circle cx="31" cy="14" r="3.5" stroke="#333230" stroke-linejoin="round"/><path stroke="#333230" d="M26.86 35.665c-1.518.54-3.155.835-4.86.835-4.376 0-8.3-1.94-10.958-5.004M12 29c0 1.657-1.343 3-3 3" stroke-linejoin="round"/></g></svg>
